src/topics/icons/keymetrics.svg

<svg height="284" preserveAspectRatio="xMidYMid" viewBox="0 0 256 284" width="256" xmlns="http://www.w3.org/2000/svg" xmlns:xlink="http://www.w3.org/1999/xlink"><linearGradient id="a" x1="81.810052%" x2="37.824329%" y1="8.917677%" y2="79.439596%"><stop offset="0" stop-color="#a8b57d"/><stop offset=".249859163" stop-color="#a8b57d"/><stop offset=".589358327" stop-color="#26a0a2"/><stop offset="1" stop-color="#268999"/></linearGradient><path d="m245.256271 231.6322c-3.319318.286703-5.87788-1.911352-8.513086-3.917325-32.105035-24.444488-64.206286-48.893707-96.311321-73.338196-2.130873-1.622756-4.323251-3.167924-6.418168-4.834206-7.02753-5.590231-7.089034-11.514476.133416-17.020495 14.029512-10.696001 28.227451-21.170588 42.303328-31.805085 20.995539-15.863275 41.927681-31.810763 62.928897-47.6664682 4.675243-3.5303238 9.125286-3.4896366 12.933797-.2110057 5.275142 4.5418264 4.872055 11.5911195-1.096662 16.1707944-12.62817 9.686391-25.350961 19.2497743-37.993324 28.9181872-13.208199 10.1017793-26.367195 20.2679003-39.547953 30.4056353-3.690234 2.838642-7.394661 5.660251-11.070702 8.518763-4.944914 3.847306-4.958161 4.576836-.087052 8.28221 20.197881 15.366513 40.40617 30.717886 60.609727 46.075882 9.411043 7.154323 18.850472 14.271744 28.213258 21.488517 4.226737 3.257814 5.587393 7.679471 4.021409 12.102075-1.487448 4.200243-5.24581 6.826932-10.105564 6.830717zm-185.2544752-90.240413c-.3728082-3.679826 1.3370002-6.118219 4.0251937-8.163933 12.288479-9.351431 24.4974761-18.806946 36.8162345-28.11769 14.684292-11.1000348 29.449013-22.0931471 44.185347-33.124108 1.13451-.8487538 2.26429-1.7287326 3.491529-2.4270385 4.622255-2.6323668 9.977825-1.5536831 13.1079 2.5689706 3.093173 4.0743968 2.896361 9.8718489-1.190337 13.2678104-7.119313 5.9147827-14.442062 11.6204521-21.998525 16.9608825-4.697006 3.320265-9.200037 6.936694-13.721047 10.420653-10.393213 8.008754-20.719244 16.122538-31.1275965 24.123722-4.9496446 3.804726-4.9695151 4.510601-.0652888 8.243415 21.4478293 16.324081 42.8814643 32.66614 64.3756583 48.928717 3.757415 2.842427 6.490081 6.125789 5.819215 11.078272-1.129779 8.356014-10.168014 11.704665-17.347884 6.344364-11.745353-8.76951-23.351612-17.725424-35.025998-26.590502-15.0618317-11.437832-30.1511037-22.839709-45.1845491-34.314444-3.1026352-2.368373-6.6745924-4.554127-6.1598521-9.199091zm120.9582992 142.2008c-2.86892.118276-5.20323-1.105178-7.371952-2.779977-33.918927-26.18836-67.855833-52.355903-101.7454272-78.584005-5.8286773-4.511547-6.862889-10.605164-2.9540796-15.604012 3.7063195-4.740531 9.9910718-5.224993 15.5321-.955676 33.9482598 26.152404 67.8700258 52.341711 101.7757058 78.548995 4.687544 3.623053 6.069962 7.674741 4.397056 12.354714-1.610456 4.508709-4.963838 6.694463-9.633403 7.019961zm.704929-283.592587c4.591976.37280825 7.909402 2.31065418 9.570953 6.64336733 1.622757 4.23336067.412549 8.49037677-3.673202 11.68763327-9.302228 7.2801692-18.707594 14.4278685-28.037262 21.6739741-21.852808 16.9722375-43.686693 33.9700228-65.5262541 50.9592922-2.8036316 2.1810229-5.5788768 4.3989481-8.4014326 6.5553694-5.5627912 4.2475537-11.6895257 3.8775847-15.5207456-.9017418-3.9655821-4.9458597-2.8575657-11.0990882 2.982466-15.5727872 18.2240785-13.9594927 36.5134453-27.8347724 54.7365783-41.7961575 15.626721-11.9724436 31.21654-23.9940904 46.771349-36.06115539 2.189539-1.69845384 4.514387-2.79133081 7.09755-3.18779441zm-138.9183836 175.895474c-1.7060236.092729-3.845413-.817528-5.7804203-2.287945-10.6638299-8.09959-21.3920024-16.118752-31.95931848-24.343243-6.66513024-5.187144-6.67743102-11.22115-.0274402-16.399778 10.56636988-8.225437 21.24533918-16.308942 31.98108138-24.311072 5.2032298-3.878531 11.5551633-2.965434 15.0788636 1.828085 3.4461108 4.68849 2.5500463 10.64869-2.4611022 14.636982-5.5467054 4.414087-11.2126339 8.68435-16.9164109 12.894056-2.9796273 2.199947-2.969219 4.044118-.0198705 6.246903 5.9327608 4.43112 11.8702526 8.866024 17.6175554 13.532751 3.8378433 3.117774 4.8370451 7.666224 2.951241 11.934595-1.8309238 4.14347-5.1038775 6.26015-10.4641788 6.268666zm206.0134606 96.889458c-.179781 4.45099-2.039091 7.596205-5.707562 9.481063-3.877584 1.992726-7.663386 1.527189-11.097196-1.098554-9.76398-7.469412-19.491058-14.987081-29.22476-22.495288-7.986045-6.160798-16.010884-12.27334-23.918393-18.535383-3.483013-2.758213-5.00074-6.456963-3.760254-10.91363 1.163843-4.17848 3.968421-6.70014 8.220706-7.556464 3.334457-.671812 6.211893.448505 8.804519 2.448802 17.346939 13.380409 34.669275 26.792044 52.038923 40.142175 2.965434 2.280376 4.520063 5.158758 4.644017 8.527279zm-62.434027-209.9894509c-4.551289-.2091133-7.813834-2.3740505-9.196253-6.7597517-1.429729-4.5370953-.072858-8.3938629 3.695912-11.3110401 7.724889-5.978179 15.478166-11.9213481 23.219141-17.8787104 9.614479-7.3993922 19.208141-14.8271708 28.851952-22.1877682 5.417074-4.13495445 11.314825-3.54640945 14.944501 1.36160171 3.451788 4.66767279 2.392975 10.36861119-2.899199 14.46382469-17.19649 13.3075513-34.447861 26.5431904-51.662329 39.8261402-2.060854 1.5896393-4.224845 2.7515899-6.953725 2.4857038z" fill="url(#a)"/></svg>

<?xml version="1.0" encoding="UTF-8" standalone="no"?>
<svg width="256px" height="284px" viewBox="0 0 256 284" version="1.1" xmlns="http://www.w3.org/2000/svg" xmlns:xlink="http://www.w3.org/1999/xlink" preserveAspectRatio="xMidYMid">
    <defs>
        <linearGradient x1="81.8100523%" y1="8.91767653%" x2="37.8243293%" y2="79.4395958%" id="linearGradient-1">
            <stop stop-color="#A8B57D" offset="0%"></stop>
            <stop stop-color="#A8B57D" offset="24.9859163%"></stop>
            <stop stop-color="#26A0A2" offset="58.9358327%"></stop>
            <stop stop-color="#268999" offset="100%"></stop>
        </linearGradient>
    </defs>
    <g>
        <path d="M245.256271,231.6322 C241.936953,231.918903 239.378391,229.720848 236.743185,227.714875 C204.63815,203.270387 172.536899,178.821168 140.431864,154.376679 C138.300991,152.753923 136.108613,151.208755 134.013696,149.542473 C126.986166,143.952242 126.924662,138.027997 134.147112,132.521978 C148.176624,121.825977 162.374563,111.35139 176.45044,100.716893 C197.445979,84.853618 218.378121,68.90613 239.379337,53.0504248 C244.05458,49.520101 248.504623,49.5607882 252.313134,52.8394191 C257.588276,57.3812455 257.185189,64.4305386 251.216472,69.0102135 C238.588302,78.6966045 225.865511,88.2599878 213.223148,97.9284007 C200.014949,108.03018 186.855953,118.196301 173.675195,128.334036 C169.984961,131.172678 166.280534,133.994287 162.604493,136.852799 C157.659579,140.700105 157.646332,141.429635 162.517441,145.135009 C182.715322,160.501522 202.923611,175.852895 223.127168,191.210891 C232.538211,198.365214 241.97764,205.482635 251.340426,212.699408 C255.567163,215.957222 256.927819,220.378879 255.361835,224.801483 C253.874387,229.001726 250.116025,231.628415 245.256271,231.6322 Z M60.0017958,141.391787 C59.6289876,137.711961 61.338796,135.273568 64.0269895,133.227854 C76.3154685,123.876423 88.5244656,114.420908 100.843224,105.110164 C115.527516,94.0101292 130.292237,83.0170169 145.028571,71.986056 C146.163081,71.1373022 147.292861,70.2573234 148.5201,69.5590175 C153.142355,66.9266507 158.497925,68.0053344 161.628,72.1279881 C164.721173,76.2023849 164.524361,81.999837 160.437663,85.3957985 C153.31835,91.3105812 145.995601,97.0162506 138.439138,102.356681 C133.742132,105.676946 129.239101,109.293375 124.718091,112.777334 C114.324878,120.786088 103.998847,128.899872 93.5904945,136.901056 C88.6408499,140.705782 88.6209794,141.411657 93.5252057,145.144471 C114.973035,161.468552 136.40667,177.810611 157.900864,194.073188 C161.658279,196.915615 164.390945,200.198977 163.720079,205.15146 C162.5903,213.507474 153.552065,216.856125 146.372195,211.495824 C134.626842,202.726314 123.020583,193.7704 111.346197,184.905322 C96.2843653,173.46749 81.1950933,162.065613 66.1616479,150.590878 C63.0590127,148.222505 59.4870555,146.036751 60.0017958,141.391787 Z M180.960095,283.592587 C178.091175,283.710863 175.756865,282.487409 173.588143,280.81261 C139.669216,254.62425 105.73231,228.456707 71.8427158,202.228605 C66.0140385,197.717058 64.9798268,191.623441 68.8886362,186.624593 C72.5949557,181.884062 78.879708,181.3996 84.4207362,185.668917 C118.368996,211.821321 152.290762,238.010628 186.196442,264.217912 C190.883986,267.840965 192.266404,271.892653 190.593498,276.572626 C188.983042,281.081335 185.62966,283.267089 180.960095,283.592587 Z M181.665024,0 C186.257,0.37280825 189.574426,2.31065418 191.235977,6.64336733 C192.858734,10.876728 191.648526,15.1337441 187.562775,18.3310006 C178.260547,25.6111698 168.855181,32.7588691 159.525513,40.0049747 C137.672705,56.9772122 115.83882,73.9749975 93.9992589,90.9642669 C91.1956273,93.1452898 88.4203821,95.363215 85.5978263,97.5196363 C80.0350351,101.76719 73.9083006,101.397221 70.0770807,96.6178945 C66.1114986,91.6720348 67.219515,85.5188063 73.0595467,81.0451073 C91.2836252,67.0856146 109.572992,53.2103349 127.796125,39.2489498 C143.422846,27.2765062 159.012665,15.2548594 174.567474,3.18779441 C176.757013,1.48934057 179.081861,0.396463596 181.665024,0 Z M42.7466404,175.895474 C41.0406168,175.988203 38.9012274,175.077946 36.9662201,173.607529 C26.3023902,165.507939 15.5742177,157.488777 5.00690162,149.264286 C-1.65822862,144.077142 -1.6705294,138.043136 4.97946142,132.864508 C15.5458313,124.639071 26.2248006,116.555566 36.9605428,108.553436 C42.1637726,104.674905 48.5157061,105.588002 52.0394064,110.381521 C55.4855172,115.070011 54.5894527,121.030211 49.5783042,125.018503 C44.0315988,129.43259 38.3656703,133.702853 32.6618933,137.912559 C29.682266,140.112506 29.6926743,141.956677 32.6420228,144.159462 C38.5747836,148.590582 44.5122754,153.025486 50.2595782,157.692213 C54.0974215,160.809987 55.0966233,165.358437 53.2108192,169.626808 C51.3798954,173.770278 48.1069417,175.886958 42.7466404,175.895474 Z M248.760101,272.784932 C248.58032,277.235922 246.72101,280.381137 243.052539,282.265995 C239.174955,284.258721 235.389153,283.793184 231.955343,281.167441 C222.191363,273.698029 212.464285,266.18036 202.730583,258.672153 C194.744538,252.511355 186.719699,246.398813 178.81219,240.13677 C175.329177,237.378557 173.81145,233.679807 175.051936,229.22314 C176.215779,225.04466 179.020357,222.523 183.272642,221.666676 C186.607099,220.994864 189.484535,222.115181 192.077161,224.115478 C209.4241,237.495887 226.746436,250.907522 244.116084,264.257653 C247.081518,266.538029 248.636147,269.416411 248.760101,272.784932 Z M186.326074,62.7954811 C181.774785,62.5863678 178.51224,60.4214306 177.129821,56.0357294 C175.700092,51.4986341 177.056963,47.6418665 180.825733,44.7246893 C188.550622,38.7465103 196.303899,32.8033412 204.044874,26.8459789 C213.659353,19.4465867 223.253015,12.0188081 232.896826,4.6582107 C238.3139,0.52325625 244.211651,1.11180125 247.841327,6.01981241 C251.293115,10.6874852 250.234302,16.3884236 244.942128,20.4836371 C227.745638,33.7911884 210.494267,47.0268275 193.279799,60.3097773 C191.218945,61.8994166 189.054954,63.0613672 186.326074,62.7954811 Z" fill="url(#linearGradient-1)"></path>
    </g>
</svg>
